assets/si/si-yahoo.svg

<svg xmlns="http://www.w3.org/2000/svg" width="100%" height="100%" viewBox="-3.36 -3.36 30.72 30.72"><path d="M18.86 1.56l-4.59 10.31h5.13L24 1.56h-5.14M0 6.71l5.15 11.56-1.85 4.17h4.53l6.86-15.73h-4.5l-2.8 6.73-2.77-6.73H0m15.62 6.16c-1.67 0-2.91 1.25-2.91 2.71 0 1.42 1.2 2.61 2.79 2.61 1.68 0 2.93-1.23 2.93-2.69 0-1.47-1.2-2.63-2.81-2.63z"/></svg>

<svg xmlns="http://www.w3.org/2000/svg" width="100%" height="100%" viewBox="-3.36 -3.36 30.72 30.72"><path d="M18.86 1.56L14.27 11.87H19.4L24 1.56H18.86M0 6.71L5.15 18.27L3.3 22.44H7.83L14.69 6.71H10.19L7.39 13.44L4.62 6.71H0M15.62 12.87C13.95 12.87 12.71 14.12 12.71 15.58C12.71 17 13.91 18.19 15.5 18.19C17.18 18.19 18.43 16.96 18.43 15.5C18.43 14.03 17.23 12.87 15.62 12.87Z"/></svg>
